;TARGET_MACHINE.NAME:BLV mgn Cube350
T0
M82 ;absolute extrusion mode
G21 ;metric values
G90 ;absolute positioning
M107 ;start with the fan off
G92 E0 ;zero the extruded length
G32

;LAYER:0
M107
M204 P1000 T1000 ;Set printing and travel accelerations
M566 X600 Y600 ;Set allowable instantaneous speed change mm/min
;-----Startscript-End------
G0 X50 Y50 F3000
; Current feedrate: 3000
M117 Feedrate: 3000
G1 X250 Y50 F3000
G1 X250 Y250 F3000
G1 X50 Y250 F3000
G1 X50 Y50 F3000
; Current feedrate: 3100
M117 Feedrate: 3100
G1 X250 Y50 F3100
G1 X250 Y250 F3100
G1 X50 Y250 F3100
G1 X50 Y50 F3100
; Current feedrate: 3200
M117 Feedrate: 3200
G1 X250 Y50 F3200
G1 X250 Y250 F3200
G1 X50 Y250 F3200
G1 X50 Y50 F3200
; Current feedrate: 3300
M117 Feedrate: 3300
G1 X250 Y50 F3300
G1 X250 Y250 F3300
G1 X50 Y250 F3300
G1 X50 Y50 F3300
; Current feedrate: 3400
M117 Feedrate: 3400
G1 X250 Y50 F3400
G1 X250 Y250 F3400
G1 X50 Y250 F3400
G1 X50 Y50 F3400
; Current feedrate: 3500
M117 Feedrate: 3500
G1 X250 Y50 F3500
G1 X250 Y250 F3500
G1 X50 Y250 F3500
G1 X50 Y50 F3500
; Current feedrate: 3600
M117 Feedrate: 3600
G1 X250 Y50 F3600
G1 X250 Y250 F3600
G1 X50 Y250 F3600
G1 X50 Y50 F3600
; Current feedrate: 3700
M117 Feedrate: 3700
G1 X250 Y50 F3700
G1 X250 Y250 F3700
G1 X50 Y250 F3700
G1 X50 Y50 F3700
; Current feedrate: 3800
M117 Feedrate: 3800
G1 X250 Y50 F3800
G1 X250 Y250 F3800
G1 X50 Y250 F3800
G1 X50 Y50 F3800
; Current feedrate: 3900
M117 Feedrate: 3900
G1 X250 Y50 F3900
G1 X250 Y250 F3900
G1 X50 Y250 F3900
G1 X50 Y50 F3900
; Current feedrate: 4000
M117 Feedrate: 4000
G1 X250 Y50 F4000
G1 X250 Y250 F4000
G1 X50 Y250 F4000
G1 X50 Y50 F4000
; Current feedrate: 4100
M117 Feedrate: 4100
G1 X250 Y50 F4100
G1 X250 Y250 F4100
G1 X50 Y250 F4100
G1 X50 Y50 F4100
; Current feedrate: 4200
M117 Feedrate: 4200
G1 X250 Y50 F4200
G1 X250 Y250 F4200
G1 X50 Y250 F4200
G1 X50 Y50 F4200
; Current feedrate: 4300
M117 Feedrate: 4300
G1 X250 Y50 F4300
G1 X250 Y250 F4300
G1 X50 Y250 F4300
G1 X50 Y50 F4300
; Current feedrate: 4400
M117 Feedrate: 4400
G1 X250 Y50 F4400
G1 X250 Y250 F4400
G1 X50 Y250 F4400
G1 X50 Y50 F4400
; Current feedrate: 4500
M117 Feedrate: 4500
G1 X250 Y50 F4500
G1 X250 Y250 F4500
G1 X50 Y250 F4500
G1 X50 Y50 F4500
; Current feedrate: 4600
M117 Feedrate: 4600
G1 X250 Y50 F4600
G1 X250 Y250 F4600
G1 X50 Y250 F4600
G1 X50 Y50 F4600
; Current feedrate: 4700
M117 Feedrate: 4700
G1 X250 Y50 F4700
G1 X250 Y250 F4700
G1 X50 Y250 F4700
G1 X50 Y50 F4700
; Current feedrate: 4800
M117 Feedrate: 4800
G1 X250 Y50 F4800
G1 X250 Y250 F4800
G1 X50 Y250 F4800
G1 X50 Y50 F4800
; Current feedrate: 4900
M117 Feedrate: 4900
G1 X250 Y50 F4900
G1 X250 Y250 F4900
G1 X50 Y250 F4900
G1 X50 Y50 F4900
; Current feedrate: 5000
M117 Feedrate: 5000
G1 X250 Y50 F5000
G1 X250 Y250 F5000
G1 X50 Y250 F5000
G1 X50 Y50 F5000
; Current feedrate: 5100
M117 Feedrate: 5100
G1 X250 Y50 F5100
G1 X250 Y250 F5100
G1 X50 Y250 F5100
G1 X50 Y50 F5100
; Current feedrate: 5200
M117 Feedrate: 5200
G1 X250 Y50 F5200
G1 X250 Y250 F5200
G1 X50 Y250 F5200
G1 X50 Y50 F5200
; Current feedrate: 5300
M117 Feedrate: 5300
G1 X250 Y50 F5300
G1 X250 Y250 F5300
G1 X50 Y250 F5300
G1 X50 Y50 F5300
; Current feedrate: 5400
M117 Feedrate: 5400
G1 X250 Y50 F5400
G1 X250 Y250 F5400
G1 X50 Y250 F5400
G1 X50 Y50 F5400
; Current feedrate: 5500
M117 Feedrate: 5500
G1 X250 Y50 F5500
G1 X250 Y250 F5500
G1 X50 Y250 F5500
G1 X50 Y50 F5500
; Current feedrate: 5600
M117 Feedrate: 5600
G1 X250 Y50 F5600
G1 X250 Y250 F5600
G1 X50 Y250 F5600
G1 X50 Y50 F5600
; Current feedrate: 5700
M117 Feedrate: 5700
G1 X250 Y50 F5700
G1 X250 Y250 F5700
G1 X50 Y250 F5700
G1 X50 Y50 F5700
; Current feedrate: 5800
M117 Feedrate: 5800
G1 X250 Y50 F5800
G1 X250 Y250 F5800
G1 X50 Y250 F5800
G1 X50 Y50 F5800
; Current feedrate: 5900
M117 Feedrate: 5900
G1 X250 Y50 F5900
G1 X250 Y250 F5900
G1 X50 Y250 F5900
G1 X50 Y50 F5900
; Current feedrate: 6000
M117 Feedrate: 6000
G1 X250 Y50 F6000
G1 X250 Y250 F6000
G1 X50 Y250 F6000
G1 X50 Y50 F6000
; Current feedrate: 6100
M117 Feedrate: 6100
G1 X250 Y50 F6100
G1 X250 Y250 F6100
G1 X50 Y250 F6100
G1 X50 Y50 F6100
; Current feedrate: 6200
M117 Feedrate: 6200
G1 X250 Y50 F6200
G1 X250 Y250 F6200
G1 X50 Y250 F6200
G1 X50 Y50 F6200
; Current feedrate: 6300
M117 Feedrate: 6300
G1 X250 Y50 F6300
G1 X250 Y250 F6300
G1 X50 Y250 F6300
G1 X50 Y50 F6300
; Current feedrate: 6400
M117 Feedrate: 6400
G1 X250 Y50 F6400
G1 X250 Y250 F6400
G1 X50 Y250 F6400
G1 X50 Y50 F6400
; Current feedrate: 6500
M117 Feedrate: 6500
G1 X250 Y50 F6500
G1 X250 Y250 F6500
G1 X50 Y250 F6500
G1 X50 Y50 F6500
; Current feedrate: 6600
M117 Feedrate: 6600
G1 X250 Y50 F6600
G1 X250 Y250 F6600
G1 X50 Y250 F6600
G1 X50 Y50 F6600
; Current feedrate: 6700
M117 Feedrate: 6700
G1 X250 Y50 F6700
G1 X250 Y250 F6700
G1 X50 Y250 F6700
G1 X50 Y50 F6700
; Current feedrate: 6800
M117 Feedrate: 6800
G1 X250 Y50 F6800
G1 X250 Y250 F6800
G1 X50 Y250 F6800
G1 X50 Y50 F6800
; Current feedrate: 6900
M117 Feedrate: 6900
G1 X250 Y50 F6900
G1 X250 Y250 F6900
G1 X50 Y250 F6900
G1 X50 Y50 F6900
; Current feedrate: 7000
M117 Feedrate: 7000
G1 X250 Y50 F7000
G1 X250 Y250 F7000
G1 X50 Y250 F7000
G1 X50 Y50 F7000
; Current feedrate: 7100
M117 Feedrate: 7100
G1 X250 Y50 F7100
G1 X250 Y250 F7100
G1 X50 Y250 F7100
G1 X50 Y50 F7100
; Current feedrate: 7200
M117 Feedrate: 7200
G1 X250 Y50 F7200
G1 X250 Y250 F7200
G1 X50 Y250 F7200
G1 X50 Y50 F7200
; Current feedrate: 7300
M117 Feedrate: 7300
G1 X250 Y50 F7300
G1 X250 Y250 F7300
G1 X50 Y250 F7300
G1 X50 Y50 F7300
; Current feedrate: 7400
M117 Feedrate: 7400
G1 X250 Y50 F7400
G1 X250 Y250 F7400
G1 X50 Y250 F7400
G1 X50 Y50 F7400
; Current feedrate: 7500
M117 Feedrate: 7500
G1 X250 Y50 F7500
G1 X250 Y250 F7500
G1 X50 Y250 F7500
G1 X50 Y50 F7500
; Current feedrate: 7600
M117 Feedrate: 7600
G1 X250 Y50 F7600
G1 X250 Y250 F7600
G1 X50 Y250 F7600
G1 X50 Y50 F7600
; Current feedrate: 7700
M117 Feedrate: 7700
G1 X250 Y50 F7700
G1 X250 Y250 F7700
G1 X50 Y250 F7700
G1 X50 Y50 F7700
; Current feedrate: 7800
M117 Feedrate: 7800
G1 X250 Y50 F7800
G1 X250 Y250 F7800
G1 X50 Y250 F7800
G1 X50 Y50 F7800
; Current feedrate: 7900
M117 Feedrate: 7900
G1 X250 Y50 F7900
G1 X250 Y250 F7900
G1 X50 Y250 F7900
G1 X50 Y50 F7900
; Current feedrate: 8000
M117 Feedrate: 8000
G1 X250 Y50 F8000
G1 X250 Y250 F8000
G1 X50 Y250 F8000
G1 X50 Y50 F8000
G0 X50 Y50 F8000
